img/bathroom.svg

<svg width="94" height="90" viewBox="0 0 94 90" fill="none" xmlns="http://www.w3.org/2000/svg">
<path d="M4.87119 51.5C-0.224755 47.972 2.58642 44.4761 4.74015 43.0827C4.82726 43.0264 4.90825 42.9629 4.98161 42.8896V42.8896C5.23107 42.6401 5.5694 42.5 5.92218 42.5H7.37122M4.87119 51.5H88.8712M4.87119 51.5V66.5C4.8712 69.6434 6.80626 75.7842 13.596 80.5M88.8712 51.5C90.5769 50.4503 92.8198 47.9545 91.1597 44.9884C90.0826 43.0639 87.6754 42.5 85.47 42.5H7.37122M88.8712 51.5V66.5C88.6188 70.2863 86.2829 77.2837 79.4319 81.5M7.37122 42.5V7C7.37122 5.33333 8.37122 2 12.3712 2C16.3712 2 22.0379 2 24.3712 2C25.7045 2 28.3712 3.5 28.3712 9.5M28.3712 9.5L25.8712 10.5L24.6777 11.0967C24.1411 11.365 23.6184 11.6702 23.1933 12.0934C22.5588 12.725 21.8712 13.6383 21.8712 14.5C21.8712 14.6339 21.8712 14.8023 21.8712 14.9984C21.8712 18.5883 24.7814 21.5 28.3712 21.5H28.8486C32.1748 21.5 34.8712 18.8036 34.8712 15.4773V15.4773C34.8712 14.83 34.7816 14.1797 34.5022 13.5958C34.3954 13.3725 34.2732 13.1423 34.1377 12.9198C33.3296 11.5942 31.6483 11.1385 30.2598 10.4443L28.3712 9.5ZM79.4319 81.5C77.441 82.7253 75.0688 83.7157 72.2556 84.3241C71.6692 84.4509 71.0694 84.5 70.4695 84.5H23.4486C22.4035 84.5 21.3608 84.3467 20.3809 83.9832C17.7094 82.9923 15.4681 81.8003 13.596 80.5M79.4319 81.5L84.8712 89M13.596 80.5L8.37122 89" stroke="#FFE602" stroke-width="3"/>
</svg>

<svg width="94" height="90" fill="none" xmlns="http://www.w3.org/2000/svg"><path d="M4.871 51.5c-5.096-3.528-2.285-7.024-.13-8.417.086-.057.167-.12.24-.193.25-.25.588-.39.941-.39h1.45m-2.5 9h84m-84 0v15c0 3.143 1.934 9.284 8.724 14m75.275-29c1.706-1.05 3.949-3.545 2.289-6.512-1.077-1.924-3.485-2.488-5.69-2.488H7.371m81.5 9v15c-.252 3.786-2.588 10.784-9.44 15m-72.06-39V7c0-1.667 1-5 5-5h12c1.334 0 4 1.5 4 7.5m0 0l-2.5 1-1.193.597c-.537.268-1.06.573-1.485.996-.634.632-1.322 1.545-1.322 2.407v.498c0 3.59 2.91 6.502 6.5 6.502h.478a6.023 6.023 0 0 0 6.022-6.023c0-.647-.09-1.297-.369-1.881a7.671 7.671 0 0 0-.364-.676c-.808-1.326-2.49-1.781-3.878-2.476L28.37 9.5zm51.06 72c-1.99 1.225-4.362 2.216-7.175 2.824a8.444 8.444 0 0 1-1.787.176H23.45c-1.046 0-2.088-.153-3.068-.517-2.672-.99-4.913-2.183-6.785-3.483m65.836 1l5.44 7.5m-71.276-8.5L8.371 89" stroke="#E73087" stroke-width="3"/></svg>
